X: 16916
T: Hava Na Jigala
R: jig
M: 6/8
K: Cmajor
|:E3 B^GB|cBA B2B|ABB ^GBB|FBB EBB|
E^GB cBA|B3 Bcd|ede fed|1 e3 e2c:|2 e3 e2f||
|:^g2a ^g2f|f2e ede|f2g f2e|e2d d3|
def fed|def a2a|^g2e fed|1 e3 e2f:|2 e3 e2c||

